lib/logo_updates/nrk-logo-nrk-jazz-with-bg.svg

<svg width="289" height="84" viewBox="0 0 289 84" fill="none" xmlns="http://www.w3.org/2000/svg">
<rect width="289" height="84" fill="#481581"/>
<path d="M20 63V21.0038H33.7802V63H20ZM52.5283 27.6877L60.4532 63H45.3721L35.9092 21.0038H44.3676C46.3072 20.9786 48.1892 21.6624 49.6607 22.9264C51.1347 24.1373 52.1473 25.8184 52.5283 27.6877ZM62.5233 63V21.0038H76.3035V63H62.5233ZM86.7116 36.9743C85.2267 36.9888 83.7656 36.6003 82.4839 35.8504C81.2193 35.1194 80.1688 34.0689 79.438 32.8041C78.6872 31.5222 78.2986 30.0607 78.3134 28.5751C78.2964 27.0986 78.6853 25.6458 79.438 24.3755C80.1766 23.1245 81.2259 22.0853 82.4839 21.3588C83.766 20.6098 85.2269 20.2213 86.7116 20.2348C88.1877 20.2189 89.6399 20.6078 90.9108 21.3588C92.1562 22.0917 93.1943 23.13 93.9271 24.3755C94.6789 25.6462 95.0677 27.0987 95.0517 28.5751C95.0655 30.0605 94.6769 31.5218 93.9271 32.8041C93.202 34.0633 92.1627 35.113 90.9108 35.8504C89.6398 36.6029 88.1866 36.9918 86.7097 36.9743H86.7116ZM97.1807 63V21.0038H110.962V63H97.1807ZM128.408 43.9538C128.447 43.9946 128.742 44.4776 129.295 45.403C129.848 46.3283 130.567 47.5114 131.454 48.952C132.341 50.392 133.277 51.9199 134.262 53.536C135.247 55.1521 136.174 56.6803 137.043 58.1202C137.908 59.5602 138.894 61.1867 140 63H124.859C123.912 61.4621 123.055 60.0721 122.286 58.83C121.517 57.5878 120.7 56.2471 119.833 54.8077C118.965 53.3698 118.107 51.9699 117.259 50.6081C116.41 49.2464 115.681 48.0536 115.071 47.0297C114.459 46.0051 114.035 45.3149 113.799 44.9594C113.214 44.0771 112.868 43.058 112.794 42.0019C112.853 40.9883 113.179 40.0084 113.74 39.1619C113.976 38.7676 114.41 38.0675 115.041 37.062C115.672 36.0564 116.411 34.8637 117.259 33.4835C118.106 32.1034 118.965 30.6936 119.833 29.2543C120.702 27.815 121.519 26.4643 122.286 25.2025C123.056 23.9419 123.914 22.5421 124.859 21.0029H140L128.289 40.1082C127.926 40.6755 127.722 41.3292 127.697 42.0019C127.736 42.7081 127.983 43.3871 128.406 43.9538H128.408Z" fill="white"/>
<path d="M167.423 53.4405C167.434 54.1267 167.314 54.8086 167.07 55.4496C166.849 56.0185 166.507 56.5325 166.069 56.9562C165.614 57.3836 165.071 57.7063 164.479 57.9017C163.795 58.1271 163.079 58.2369 162.359 58.2267C161.888 58.2267 161.446 58.2069 161.034 58.1675C160.622 58.1281 160.21 58.079 159.798 58.0199C159.386 57.9608 158.974 57.8915 158.561 57.812C158.149 57.7326 157.727 57.6444 157.295 57.5472C156.864 57.4487 156.432 57.3403 156 57.2221L156.471 62.5401C157.021 62.6977 157.551 62.845 158.061 62.9823C158.571 63.1211 159.081 63.2383 159.592 63.3377C160.117 63.4375 160.648 63.5063 161.182 63.5437C161.731 63.5831 162.34 63.603 163.007 63.6036C164.368 63.6251 165.726 63.4558 167.04 63.1004C168.113 62.8082 169.121 62.3176 170.014 61.6538C170.819 61.0444 171.507 60.2937 172.045 59.4379C172.58 58.5794 172.978 57.642 173.223 56.6599C173.482 55.6264 173.61 54.5642 173.606 53.4986V21H167.423V53.4405Z" fill="#DBBFFA"/>
<path d="M208.464 59.2312C208.033 59.2707 207.6 59.2054 207.2 59.0408C206.8 58.8762 206.446 58.6172 206.167 58.2858C205.621 57.339 205.394 56.2407 205.52 55.1541L205.637 42.9819C205.65 41.7059 205.492 40.4339 205.166 39.2003C204.88 38.1182 204.401 37.0969 203.753 36.1858C203.098 35.2955 202.266 34.5511 201.309 33.9995C200.198 33.3669 198.997 32.9089 197.747 32.6415C196.219 32.3102 194.659 32.1517 193.096 32.1688C191.855 32.1679 190.616 32.2465 189.386 32.4042C188.224 32.5516 187.073 32.7789 185.941 33.0846C184.892 33.3697 183.86 33.715 182.85 34.1187L182.143 39.1412C183.125 38.7873 184.057 38.4918 184.94 38.2548C185.824 38.0178 186.677 37.8209 187.502 37.664C188.31 37.5093 189.125 37.4012 189.945 37.34C190.749 37.2809 191.544 37.251 192.33 37.2503C193.531 37.2249 194.729 37.3641 195.892 37.664C196.741 37.8771 197.522 38.3046 198.159 38.9058C198.727 39.4899 199.133 40.2131 199.337 41.0034C199.588 41.9776 199.707 42.9813 199.69 43.9874L199.683 45.4695L192.801 45.9373C190.447 46.0034 188.128 46.5247 185.971 47.4726C184.357 48.1819 182.963 49.3149 181.937 50.7521C181.067 52.0313 180.605 53.5459 180.613 55.095C180.602 56.5487 180.956 57.9818 181.643 59.2618C182.363 60.5757 183.447 61.6526 184.764 62.3628C186.37 63.2015 188.165 63.6087 189.975 63.5447C191.67 63.5836 193.358 63.3034 194.95 62.7184C196.327 62.1777 197.587 61.3751 198.66 60.3549C199.067 59.963 199.454 59.5499 199.818 59.117C199.932 59.7291 200.148 60.3175 200.456 60.8581C200.981 61.7624 201.788 62.4684 202.752 62.8671C203.818 63.297 204.96 63.508 206.108 63.4876C206.462 63.4876 206.805 63.4767 207.139 63.458C207.467 63.4382 207.792 63.3884 208.11 63.3093C208.424 63.2305 208.708 63.1626 208.964 63.1025C209.195 63.0513 209.421 62.9821 209.641 62.8956L210.289 58.9378C209.964 59.0494 209.629 59.1285 209.288 59.1741C209.015 59.21 208.739 59.2291 208.464 59.2312ZM198.66 56.5722C198.021 57.0788 197.33 57.515 196.599 57.8731C195.87 58.2284 195.098 58.4866 194.303 58.6413C193.478 58.8004 192.64 58.8792 191.8 58.8767C190.84 58.9046 189.886 58.7232 189.003 58.3449C188.285 58.0325 187.679 57.507 187.266 56.8391C186.858 56.1308 186.654 55.3228 186.677 54.5051C186.62 53.5197 186.89 52.5431 187.443 51.727C188.084 50.9765 188.953 50.4576 189.916 50.2498C191.42 49.8948 192.964 49.7363 194.509 49.7781H199.665L199.638 55.6425C199.339 55.9795 199.012 56.2912 198.66 56.5722Z" fill="#DBBFFA"/>
<path d="M238.139 37.0138L237.433 32.8176H214.704L213.997 37.5447H231.097L213.469 58.9346L214.175 62.9526H238.199L238.847 58.1665H220.85L238.139 37.0138Z" fill="#DBBFFA"/>
<path d="M250.525 58.1675L267.817 37.015L267.109 32.8187H244.381L243.674 37.5458H260.772L243.144 58.9357L243.851 62.9538H267.875L268.522 58.1675H250.525Z" fill="#DBBFFA"/>
</svg>

<svg xmlns="http://www.w3.org/2000/svg" viewBox="0 0 289 84"><path fill="#481581" d="M0 0h289v84H0z"/><path fill="#fff" d="M20 63V21.004h13.78V63H20Zm32.528-35.312L60.453 63h-15.08l-9.464-41.996h8.459a7.965 7.965 0 0 1 5.293 1.922 8.31 8.31 0 0 1 2.867 4.762ZM62.523 63V21.004h13.78V63h-13.78Zm24.189-26.026a8.213 8.213 0 0 1-4.228-1.124 8.336 8.336 0 0 1-3.046-3.046 8.206 8.206 0 0 1-1.125-4.229 8.056 8.056 0 0 1 1.125-4.2 8.437 8.437 0 0 1 3.046-3.016 8.233 8.233 0 0 1 4.228-1.124 8.083 8.083 0 0 1 4.199 1.124 8.504 8.504 0 0 1 3.016 3.016 8.075 8.075 0 0 1 1.125 4.2 8.226 8.226 0 0 1-1.125 4.23 8.4 8.4 0 0 1-3.016 3.045 8.059 8.059 0 0 1-4.201 1.124h.002ZM97.18 63V21.004h13.781V63H97.181Zm31.227-19.046c.039.04.334.524.887 1.449.553.925 1.272 2.108 2.159 3.549a1143.28 1143.28 0 0 1 5.589 9.168A854.89 854.89 0 0 0 140 63h-15.141c-.947-1.538-1.804-2.928-2.573-4.17a388.795 388.795 0 0 1-2.453-4.022 355.984 355.984 0 0 0-2.574-4.2 210.645 210.645 0 0 1-2.188-3.578 62.13 62.13 0 0 0-1.272-2.07 6.127 6.127 0 0 1-1.005-2.958 5.745 5.745 0 0 1 .946-2.84c.236-.394.67-1.094 1.301-2.1.631-1.006 1.37-2.198 2.218-3.578.847-1.38 1.706-2.79 2.574-4.23.869-1.439 1.686-2.79 2.453-4.052.77-1.26 1.628-2.66 2.573-4.2H140l-11.711 19.106a3.773 3.773 0 0 0-.592 1.894c.039.706.286 1.385.709 1.952h.002Z"/><path fill="#DBBFFA" d="M167.423 53.44a5.404 5.404 0 0 1-.353 2.01 4.226 4.226 0 0 1-1.001 1.506c-.455.428-.998.75-1.59.946-.684.225-1.4.335-2.12.325-.471 0-.913-.02-1.325-.06a26.408 26.408 0 0 1-2.473-.355c-.412-.08-.834-.168-1.266-.265a31.505 31.505 0 0 1-1.295-.325l.471 5.318c.55.158 1.08.305 1.59.442.51.14 1.02.256 1.531.356.525.1 1.056.168 1.59.206.549.04 1.158.059 1.825.06a14.568 14.568 0 0 0 4.033-.504 8.907 8.907 0 0 0 2.974-1.446 8.358 8.358 0 0 0 2.031-2.216 9.687 9.687 0 0 0 1.178-2.778c.259-1.034.387-2.096.383-3.161V21h-6.183v32.44ZM208.464 59.231a2.677 2.677 0 0 1-2.297-.945 5.095 5.095 0 0 1-.647-3.132l.117-12.172a14.233 14.233 0 0 0-.471-3.782 9.303 9.303 0 0 0-1.413-3.014 7.984 7.984 0 0 0-2.444-2.187 12.47 12.47 0 0 0-3.562-1.358 20.871 20.871 0 0 0-4.651-.472c-1.241-.001-2.48.078-3.71.235a25.542 25.542 0 0 0-3.445.68c-1.049.286-2.081.631-3.091 1.035l-.707 5.022c.982-.354 1.914-.65 2.797-.886a35.559 35.559 0 0 1 2.562-.591 21.493 21.493 0 0 1 2.443-.324c.804-.06 1.599-.089 2.385-.09a13.149 13.149 0 0 1 3.562.414 5.12 5.12 0 0 1 2.267 1.242 4.69 4.69 0 0 1 1.178 2.097c.251.975.37 1.978.353 2.984l-.007 1.482-6.882.468a18.249 18.249 0 0 0-6.83 1.536 9.804 9.804 0 0 0-4.034 3.28 7.653 7.653 0 0 0-1.324 4.342 8.673 8.673 0 0 0 1.03 4.167 7.759 7.759 0 0 0 3.121 3.1 10.457 10.457 0 0 0 5.211 1.183 13.525 13.525 0 0 0 4.975-.827 11.467 11.467 0 0 0 3.71-2.363c.407-.392.794-.805 1.158-1.238.114.612.33 1.2.638 1.741a4.76 4.76 0 0 0 2.296 2.01c1.066.429 2.208.64 3.356.62.354 0 .697-.011 1.031-.03.328-.02.653-.07.971-.149.314-.078.598-.146.854-.206.231-.052.457-.12.677-.207l.648-3.958c-.325.111-.66.19-1.001.236a6.723 6.723 0 0 1-.824.057Zm-9.804-2.659c-.639.507-1.33.943-2.061 1.301a9.292 9.292 0 0 1-2.296.768c-.825.16-1.663.238-2.503.236a6.613 6.613 0 0 1-2.797-.532 3.849 3.849 0 0 1-1.737-1.506 4.427 4.427 0 0 1-.589-2.334 4.491 4.491 0 0 1 .766-2.778 4.502 4.502 0 0 1 2.473-1.477 17.888 17.888 0 0 1 4.593-.472h5.156l-.027 5.864a7.886 7.886 0 0 1-.978.93ZM238.139 37.014l-.706-4.196h-22.729l-.707 4.727h17.1l-17.628 21.39.706 4.018h24.024l.648-4.787H220.85l17.289-21.152ZM250.525 58.167l17.292-21.152-.708-4.196h-22.728l-.707 4.727h17.098l-17.628 21.39.707 4.018h24.024l.647-4.787h-17.997Z"/></svg>
